icons/fingerprint-2-fill.svg

<svg xmlns="http://www.w3.org/2000/svg" width="24" height="24" fill="none"><g clip-path="url(#a)"><g><path fill="#121212" d="M12 1C14.387 1 16.6761 1.94821 18.364 3.63604C20.0518 5.32387 21 7.61305 21 10V14C21.001 15.4415 20.6554 16.862 19.9923 18.1419C19.3292 19.4218 18.3681 20.5234 17.19 21.354C17.664 19.832 17.94 18.223 17.992 16.557L18 16V13.999H16V16L15.997 16.315C15.9573 18.4958 15.4702 20.6451 14.566 22.63C13.4076 22.9723 12.1924 23.079 10.992 22.944C12.2303 20.9888 12.9213 18.7372 12.993 16.424L13 16V9H11V16L10.996 16.288C10.9417 18.5077 10.2138 20.6585 8.909 22.455C7.95489 22.1058 7.06695 21.5973 6.283 20.951C7.32785 19.6298 7.92657 18.0111 7.993 16.328L8 16V10L8.005 9.8C8.03251 9.23352 8.18082 8.67946 8.44 8.175L8.554 7.968L7.109 6.523C6.44426 7.45536 6.06171 8.55924 6.007 9.703L6 10V16L5.996 16.225C5.95369 17.4028 5.56364 18.5416 4.875 19.498C3.65665 17.9245 2.99695 15.9901 3 14V10C3 7.61305 3.94821 5.32387 5.63604 3.63604C7.32387 1.94821 9.61305 1 12 1ZM12 4C10.804 4 9.69 4.35 8.754 4.953L8.524 5.109L9.968 6.554C10.5118 6.23231 11.1243 6.0448 11.755 6.007L12 6L12.2 6.005C13.1895 6.05446 14.1254 6.46936 14.8265 7.16935C15.5276 7.86934 15.944 8.8046 15.995 9.794L16 10V12H18V10C18 8.4087 17.3679 6.88258 16.2426 5.75736C15.1174 4.63214 13.5913 4 12 4Z"/></g></g><defs><clipPath id="a"><rect width="24" height="24" fill="white"/></clipPath></defs></svg>

<svg width="24" height="24" fill="none" xmlns="http://www.w3.org/2000/svg"><g clip-path="url(#a)"><path d="M12 1a9 9 0 0 1 9 9v4a8.99 8.99 0 0 1-3.81 7.354c.474-1.522.75-3.131.802-4.797L18 16v-2.001h-2V16l-.003.315c-.04 2.18-.527 4.33-1.431 6.315a9.045 9.045 0 0 1-3.574.314 12.935 12.935 0 0 0 2.001-6.52L13 16V9h-2v7l-.004.288a10.95 10.95 0 0 1-2.087 6.167 8.98 8.98 0 0 1-2.626-1.504 7.959 7.959 0 0 0 1.71-4.623L8 16v-6l.005-.2c.028-.566.176-1.12.435-1.625l.114-.207-1.445-1.445a5.97 5.97 0 0 0-1.102 3.18L6 10v6l-.004.225a5.968 5.968 0 0 1-1.121 3.273A8.958 8.958 0 0 1 3 14v-4a9 9 0 0 1 9-9Zm0 3c-1.196 0-2.31.35-3.246.953l-.23.156 1.444 1.445a3.977 3.977 0 0 1 1.787-.547L12 6l.2.005a4 4 0 0 1 3.795 3.789L16 10v2h2v-2a6 6 0 0 0-6-6Z" /></g><defs><clipPath id="a"><path fill="#fff" d="M0 0h24v24H0z"/></clipPath></defs></svg>
